icons/code-24.svg

<svg width="24" height="24" viewBox="0 0 24 24" xmlns="http://www.w3.org/2000/svg">
  <path fill-rule="evenodd" clip-rule="evenodd" d="M8.78033 4.96967C9.07322 5.26256 9.07322 5.73744 8.78033 6.03033L2.81066 12L8.78033 17.9697C9.07322 18.2626 9.07322 18.7374 8.78033 19.0303C8.48744 19.3232 8.01256 19.3232 7.71967 19.0303L1.21967 12.5303C0.926777 12.2374 0.926777 11.7626 1.21967 11.4697L7.71967 4.96967C8.01256 4.67678 8.48744 4.67678 8.78033 4.96967Z"/>
  <path fill-rule="evenodd" clip-rule="evenodd" d="M15.2197 4.96967C14.9268 5.26256 14.9268 5.73744 15.2197 6.03033L21.1893 12L15.2197 17.9697C14.9268 18.2626 14.9268 18.7374 15.2197 19.0303C15.5126 19.3232 15.9874 19.3232 16.2803 19.0303L22.7803 12.5303C23.0732 12.2374 23.0732 11.7626 22.7803 11.4697L16.2803 4.96967C15.9874 4.67678 15.5126 4.67678 15.2197 4.96967Z"/>
</svg>

<svg xmlns="http://www.w3.org/2000/svg" width="24" height="24" viewBox="0 0 24 24"><path fill-rule="evenodd" d="M8.78 4.97a.75.75 0 010 1.06L2.81 12l5.97 5.97a.75.75 0 11-1.06 1.06l-6.5-6.5a.75.75 0 010-1.06l6.5-6.5a.75.75 0 011.06 0zm6.44 0a.75.75 0 000 1.06L21.19 12l-5.97 5.97a.75.75 0 101.06 1.06l6.5-6.5a.75.75 0 000-1.06l-6.5-6.5a.75.75 0 00-1.06 0z"/></svg>
